X: 60
T:Good Old Summertime
% Nottingham Music Database
S:Kevin Briggs, via EF
M:4/4
L:1/4
K:G
de |"G"d2 B2|"G"dg3|"G"b4-|"G7"b2 ag|"C"g3a|"C"g2 e2|"G"d4-|"D7"de dc|
"G"B2 d2|"G"g2 a2|"B7"b2 ag-|"Em"g3g|"A7"e2 "g"a2|"A7/f+"ab -"e"b2|\
"D7"a2 -"c"a2|"D7/b"a2 "a"dc|
"G"B2 d2|"G"g2 a2|"G"b2 ag-|"G7"g3g|"C"g3a|"C"g2 e2|"G"d4-|"D7"de dc|
"G"B2 d2|"G"g2 a2|"B7"b2 ag-|"Em"g2 d^d|"A7"e2 g2|"D7"g2 a2|"G"g2 -"C"g2|\
"G"g2 ||


